X: 1691
T: Ballincollig in the Morning
M:2/4
L:1/16
B:O'Neill's 1691
N:"collected by F.O'Neill"
K:G
B-c \
| dBABG2AB | cBAGF2B-c | dBgedBGA | B2A2A2B-c |
| dBABG2AB | cBAGF2B-c | dBgedBAB | G2GGG2 :|
|: B-c \
| dBgedBGB | dBge d2B-c | dBgedBGA | B2A2 A2g-e |
| dcBA F2B-c | dBgedBAB | G2GGG2 :|


